web/images/natural-events/event-volcano.svg

<?xml version="1.0" encoding="UTF-8" standalone="no"?><!DOCTYPE svg PUBLIC "-//W3C//DTD SVG 1.1//EN" "http://www.w3.org/Graphics/SVG/1.1/DTD/svg11.dtd"><svg width="100%" height="100%" viewBox="0 0 1000 1000" version="1.1" xmlns="http://www.w3.org/2000/svg" xmlns:xlink="http://www.w3.org/1999/xlink" xml:space="preserve" style="fill-rule:evenodd;clip-rule:evenodd;stroke-linejoin:round;stroke-miterlimit:1.41421;"><circle cx="500" cy="502.125" r="500" style="fill:#9c6640;"/><path d="M882.676,736.748c-79.384,127.962 -221.149,213.252 -382.676,213.252c-162.145,0 -304.375,-85.943 -383.583,-214.722l261.583,-361.383c81.711,38.617 156.612,38.05 225,0l279.676,362.853Zm-277.149,-223.108c0,0 63.555,203.154 97.498,287.522c3.475,8.636 13.307,12.826 21.942,9.352c8.636,-3.475 12.826,-13.306 9.352,-21.942c-33.944,-84.368 -128.792,-274.932 -128.792,-274.932l0,0Zm-243.34,-11.515c0,0 -100.019,135.302 -136.671,196.981c-4.755,8.002 -2.119,18.359 5.883,23.114c8.003,4.756 18.36,2.119 23.115,-5.883c36.651,-61.679 107.673,-214.212 107.673,-214.212Zm178.23,-30.544c0,0 -0.443,124.746 6.007,177.395c1.048,8.551 8.84,14.642 17.391,13.595c8.55,-1.048 14.642,-8.84 13.594,-17.391c-6.45,-52.649 -36.992,-173.599 -36.992,-173.599l0,0Zm-40.417,-97.686c-4.129,-71.774 -0.23,-146.809 25.757,-229.947l15.875,3.5c-29.774,84.418 -38.009,155.923 -41.632,226.447l0,0Zm-70.895,-25.231c-30.403,-51.745 -57.675,-84.923 -112.749,-133.375l10.31,-10.879c47.087,43.985 79.25,92.698 102.439,144.254Zm136.688,-1.266c3.418,-54.594 18.31,-104.066 56.826,-142.988l11.924,11.442c-39.149,29.312 -56.526,75.131 -68.75,131.546Zm-249.386,-184.87l-40.559,-17.08l-18.236,5.335l-5.201,38.079l11.014,2.951l14.814,32.023l17.266,-2.62l25.627,-41.346l-4.725,-17.342l0,0Zm343.028,57.564l42.347,-10.966l22.818,-27.419l-25.903,-31.204l-28.259,3.377l-32.415,-5.387l-13.904,36.9l35.316,34.699Zm-74.156,-102.402l-3.802,-22.778l-34.088,-27.439l-18.372,4.927l-23.934,15.814l6.666,33.475l56.395,17.287l17.135,-21.286l0,0Z" style="fill:#fff;"/></svg>

<?xml version="1.0" encoding="UTF-8" standalone="no"?>
<!DOCTYPE svg PUBLIC "-//W3C//DTD SVG 1.1//EN" "http://www.w3.org/Graphics/SVG/1.1/DTD/svg11.dtd">
<svg width="100%" height="100%" viewBox="0 0 1000 1000" version="1.1" xmlns="http://www.w3.org/2000/svg" xmlns:xlink="http://www.w3.org/1999/xlink" xml:space="preserve" style="fill-rule:evenodd;clip-rule:evenodd;stroke-linejoin:round;stroke-miterlimit:1.41421;">
    <circle cx="500" cy="502.125" r="500" style="fill:rgb(166,116,74);"/>
    <path d="M882.676,736.748C803.292,864.71 661.527,950 500,950C337.855,950 195.625,864.057 116.417,735.278L378,373.895C459.711,412.512 534.612,411.945 603,373.895L882.676,736.748ZM605.527,513.64C605.527,513.64 669.082,716.794 703.025,801.162C706.5,809.798 716.332,813.988 724.967,810.514C733.603,807.039 737.793,797.208 734.319,788.572C700.375,704.204 605.527,513.64 605.527,513.64L605.527,513.64ZM362.187,502.125C362.187,502.125 262.168,637.427 225.516,699.106C220.761,707.108 223.397,717.465 231.399,722.22C239.402,726.976 249.759,724.339 254.514,716.337C291.165,654.658 362.187,502.125 362.187,502.125ZM540.417,471.581C540.417,471.581 539.974,596.327 546.424,648.976C547.472,657.527 555.264,663.618 563.815,662.571C572.365,661.523 578.457,653.731 577.409,645.18C570.959,592.531 540.417,471.581 540.417,471.581L540.417,471.581ZM500,373.895C495.871,302.121 499.77,227.086 525.757,143.948L541.632,147.448C511.858,231.866 503.623,303.371 500,373.895L500,373.895ZM429.105,348.664C398.702,296.919 371.43,263.741 316.356,215.289L326.666,204.41C373.753,248.395 405.916,297.108 429.105,348.664ZM565.793,347.398C569.211,292.804 584.103,243.332 622.619,204.41L634.543,215.852C595.394,245.164 578.017,290.983 565.793,347.398ZM316.407,162.528L275.848,145.448L257.612,150.783L252.411,188.862L263.425,191.813L278.239,223.836L295.505,221.216L321.132,179.87L316.407,162.528L316.407,162.528ZM659.435,220.092L701.782,209.126L724.6,181.707L698.697,150.503L670.438,153.88L638.023,148.493L624.119,185.393L659.435,220.092ZM585.279,117.69L581.477,94.912L547.389,67.473L529.017,72.4L505.083,88.214L511.749,121.689L568.144,138.976L585.279,117.69L585.279,117.69Z" style="fill:white;"/>
</svg>
